Open Lection 2021/img/logo.svg

<svg width="104" height="26" viewBox="0 0 104 26" fill="none" xmlns="http://www.w3.org/2000/svg">
<path d="M30.1361 9.33624C30.6161 9.33624 31.0241 9.40424 31.3601 9.54024C31.6961 9.67624 32.0241 9.86824 32.3441 10.1162C32.4321 10.1882 32.5081 10.2242 32.5721 10.2242C32.7321 10.2242 32.8361 9.98424 32.8841 9.50424H33.1601C33.1281 10.0242 33.1121 10.9442 33.1121 12.2642H32.8361C32.7481 11.7442 32.6681 11.3722 32.5961 11.1482C32.5241 10.9162 32.4041 10.6962 32.2361 10.4882C31.9961 10.1762 31.6881 9.94424 31.3121 9.79224C30.9441 9.63224 30.5441 9.55224 30.1121 9.55224C29.5921 9.55224 29.1361 9.72424 28.7441 10.0682C28.3601 10.4122 28.0601 10.9042 27.8441 11.5442C27.6281 12.1762 27.5201 12.9202 27.5201 13.7762C27.5201 14.6482 27.6361 15.3962 27.8681 16.0202C28.1001 16.6442 28.4201 17.1202 28.8281 17.4482C29.2441 17.7682 29.7121 17.9282 30.2321 17.9282C30.6321 17.9282 31.0201 17.8522 31.3961 17.7002C31.7721 17.5482 32.0681 17.3202 32.2841 17.0162C32.4441 16.7922 32.5601 16.5522 32.6321 16.2962C32.7041 16.0402 32.7721 15.6482 32.8361 15.1202H33.1121C33.1121 16.4962 33.1281 17.4562 33.1601 18.0002H32.8841C32.8601 17.7442 32.8241 17.5642 32.7761 17.4602C32.7361 17.3482 32.6761 17.2922 32.5961 17.2922C32.5321 17.2922 32.4481 17.3242 32.3441 17.3882C31.9841 17.6442 31.6401 17.8402 31.3121 17.9762C30.9841 18.1042 30.5881 18.1682 30.1241 18.1682C29.3641 18.1682 28.6961 17.9962 28.1201 17.6522C27.5521 17.3082 27.1081 16.8122 26.7881 16.1642C26.4761 15.5082 26.3201 14.7282 26.3201 13.8242C26.3201 12.9442 26.4801 12.1642 26.8001 11.4842C27.1281 10.8042 27.5801 10.2762 28.1561 9.90024C28.7401 9.52424 29.4001 9.33624 30.1361 9.33624ZM40.0778 9.33624C40.8378 9.33624 41.5018 9.50824 42.0698 9.85224C42.6458 10.1962 43.0898 10.6962 43.4018 11.3522C43.7218 12.0002 43.8818 12.7762 43.8818 13.6802C43.8818 14.5602 43.7178 15.3402 43.3898 16.0202C43.0698 16.7002 42.6178 17.2282 42.0338 17.6042C41.4578 17.9802 40.8018 18.1682 40.0658 18.1682C39.3058 18.1682 38.6378 17.9962 38.0618 17.6522C37.4938 17.3082 37.0498 16.8122 36.7298 16.1642C36.4178 15.5082 36.2618 14.7282 36.2618 13.8242C36.2618 12.9442 36.4218 12.1642 36.7418 11.4842C37.0698 10.8042 37.5218 10.2762 38.0978 9.90024C38.6818 9.52424 39.3418 9.33624 40.0778 9.33624ZM40.0298 9.55224C39.5178 9.55224 39.0658 9.73224 38.6738 10.0922C38.2898 10.4442 37.9898 10.9402 37.7738 11.5802C37.5658 12.2202 37.4618 12.9522 37.4618 13.7762C37.4618 14.6082 37.5778 15.3402 37.8098 15.9722C38.0498 16.6042 38.3698 17.0922 38.7698 17.4362C39.1698 17.7802 39.6178 17.9522 40.1138 17.9522C40.6258 17.9522 41.0738 17.7762 41.4578 17.4242C41.8498 17.0642 42.1498 16.5642 42.3578 15.9242C42.5738 15.2842 42.6818 14.5522 42.6818 13.7282C42.6818 12.8962 42.5618 12.1642 42.3218 11.5322C42.0898 10.9002 41.7738 10.4122 41.3738 10.0682C40.9738 9.72424 40.5258 9.55224 40.0298 9.55224ZM54.1466 9.74424C53.8666 9.76024 53.6586 9.80424 53.5226 9.87624C53.3866 9.94024 53.2946 10.0522 53.2466 10.2122C53.1986 10.3642 53.1746 10.5922 53.1746 10.8962V18.0602H52.8986L47.8586 10.2722V16.6082C47.8586 16.9202 47.8826 17.1522 47.9306 17.3042C47.9866 17.4562 48.0906 17.5682 48.2426 17.6402C48.3946 17.7042 48.6306 17.7442 48.9506 17.7602V18.0002C48.6626 17.9762 48.2546 17.9642 47.7266 17.9642C47.2466 17.9642 46.8746 17.9762 46.6106 18.0002V17.7602C46.8906 17.7442 47.0986 17.7042 47.2346 17.6402C47.3706 17.5682 47.4626 17.4562 47.5106 17.3042C47.5586 17.1442 47.5826 16.9122 47.5826 16.6082V10.7762C47.5826 10.4722 47.5586 10.2522 47.5106 10.1162C47.4626 9.98024 47.3706 9.88824 47.2346 9.84024C47.1066 9.79224 46.8986 9.76024 46.6106 9.74424V9.50424C46.8746 9.52824 47.2466 9.54024 47.7266 9.54024C48.0866 9.54024 48.3986 9.52824 48.6626 9.50424L52.8986 16.0322V10.8962C52.8986 10.5842 52.8706 10.3522 52.8146 10.2002C52.7666 10.0482 52.6666 9.94024 52.5146 9.87624C52.3626 9.80424 52.1266 9.76024 51.8066 9.74424V9.50424C52.0946 9.52824 52.5026 9.54024 53.0306 9.54024C53.5106 9.54024 53.8826 9.52824 54.1466 9.50424V9.74424ZM65.3332 18.3482C65.1572 18.9562 64.9052 19.4122 64.5772 19.7162C64.1852 20.0762 63.6452 20.2562 62.9572 20.2562C62.5892 20.2562 62.2292 20.2002 61.8772 20.0882C61.5252 19.9762 61.0812 19.8002 60.5452 19.5602C59.9532 19.3042 59.4692 19.1122 59.0932 18.9842L58.8052 18.9002C58.4612 19.0202 58.1292 19.0802 57.8092 19.0802C57.4412 19.0802 57.2572 19.0002 57.2572 18.8402C57.2572 18.6722 57.4732 18.5882 57.9052 18.5882C58.1852 18.5882 58.4852 18.6202 58.8052 18.6842C59.0612 18.6122 59.3572 18.5002 59.6932 18.3482C59.9012 18.2522 60.0572 18.1842 60.1612 18.1442C59.4812 18.0802 58.8892 17.8682 58.3852 17.5082C57.8892 17.1482 57.5012 16.6562 57.2212 16.0322C56.9492 15.4002 56.8132 14.6642 56.8132 13.8242C56.8132 12.9442 56.9732 12.1642 57.2932 11.4842C57.6212 10.8042 58.0732 10.2762 58.6492 9.90024C59.2332 9.52424 59.8932 9.33624 60.6292 9.33624C61.3892 9.33624 62.0532 9.50824 62.6212 9.85224C63.1972 10.1962 63.6412 10.6962 63.9532 11.3522C64.2732 12.0002 64.4332 12.7762 64.4332 13.6802C64.4332 14.5122 64.2892 15.2562 64.0012 15.9122C63.7132 16.5602 63.3092 17.0802 62.7892 17.4722C62.2692 17.8562 61.6732 18.0802 61.0012 18.1442V18.1562C60.8092 18.1802 60.6412 18.2122 60.4972 18.2522C60.3612 18.3002 60.1772 18.3722 59.9452 18.4682C59.6572 18.5962 59.4172 18.6882 59.2252 18.7442C60.1132 18.9202 60.8652 19.0602 61.4812 19.1642C62.1052 19.2682 62.6212 19.3202 63.0292 19.3202C63.5972 19.3202 64.0452 19.2362 64.3732 19.0682C64.7092 18.9082 64.9692 18.6442 65.1532 18.2762L65.3332 18.3482ZM58.0132 13.7762C58.0132 14.6082 58.1292 15.3402 58.3612 15.9722C58.6012 16.6042 58.9212 17.0922 59.3212 17.4362C59.7212 17.7802 60.1692 17.9522 60.6652 17.9522C61.1772 17.9522 61.6252 17.7762 62.0092 17.4242C62.4012 17.0642 62.7012 16.5642 62.9092 15.9242C63.1252 15.2842 63.2332 14.5522 63.2332 13.7282C63.2332 12.8962 63.1132 12.1642 62.8732 11.5322C62.6412 10.9002 62.3252 10.4122 61.9252 10.0682C61.5252 9.72424 61.0772 9.55224 60.5812 9.55224C60.0692 9.55224 59.6172 9.73224 59.2252 10.0922C58.8412 10.4442 58.5412 10.9402 58.3252 11.5802C58.1172 12.2202 58.0132 12.9522 58.0132 13.7762ZM74.5414 9.74424C74.2614 9.76024 74.0534 9.80424 73.9174 9.87624C73.7814 9.94024 73.6894 10.0522 73.6414 10.2122C73.5934 10.3642 73.5694 10.5922 73.5694 10.8962V14.5082C73.5694 15.0842 73.5294 15.5802 73.4494 15.9962C73.3774 16.4042 73.2534 16.7562 73.0774 17.0522C72.8774 17.3962 72.5814 17.6682 72.1894 17.8682C71.8054 18.0682 71.3694 18.1682 70.8814 18.1682C70.0014 18.1682 69.3294 17.9522 68.8654 17.5202C68.5134 17.1922 68.2774 16.8202 68.1574 16.4042C68.0374 15.9882 67.9774 15.3682 67.9774 14.5442V10.7762C67.9774 10.4722 67.9534 10.2522 67.9054 10.1162C67.8574 9.98024 67.7654 9.88824 67.6294 9.84024C67.5014 9.79224 67.2934 9.76024 67.0054 9.74424V9.50424C67.3414 9.52824 67.8534 9.54024 68.5414 9.54024C69.1894 9.54024 69.6974 9.52824 70.0654 9.50424V9.74424C69.7774 9.76024 69.5654 9.79224 69.4294 9.84024C69.3014 9.88824 69.2134 9.98024 69.1654 10.1162C69.1174 10.2522 69.0934 10.4722 69.0934 10.7762V14.7482C69.0934 15.3882 69.1374 15.9202 69.2254 16.3442C69.3134 16.7682 69.4934 17.1082 69.7654 17.3642C70.0454 17.6202 70.4534 17.7482 70.9894 17.7482C71.8374 17.7482 72.4334 17.4762 72.7774 16.9322C73.1214 16.3882 73.2934 15.6242 73.2934 14.6402V10.8962C73.2934 10.4642 73.2134 10.1682 73.0534 10.0082C72.9014 9.84824 72.6174 9.76024 72.2014 9.74424V9.50424C72.4894 9.52824 72.8974 9.54024 73.4254 9.54024C73.9054 9.54024 74.2774 9.52824 74.5414 9.50424V9.74424ZM83.1891 16.4642C83.1891 16.9202 83.2171 17.4322 83.2731 18.0002C82.7291 17.9762 81.8131 17.9642 80.5251 17.9642C78.9891 17.9642 77.8291 17.9762 77.0451 18.0002V17.7602C77.3331 17.7442 77.5411 17.7122 77.6691 17.6642C77.8051 17.6162 77.8971 17.5242 77.9451 17.3882C77.9931 17.2522 78.0171 17.0322 78.0171 16.7282V10.7762C78.0171 10.4722 77.9931 10.2522 77.9451 10.1162C77.8971 9.98024 77.8051 9.88824 77.6691 9.84024C77.5411 9.79224 77.3331 9.76024 77.0451 9.74424V9.50424C77.8291 9.52824 78.9891 9.54024 80.5251 9.54024C81.7011 9.54024 82.5371 9.52824 83.0331 9.50424C82.9771 10.0322 82.9491 10.5042 82.9491 10.9202C82.9491 11.2322 82.9611 11.4802 82.9851 11.6642H82.7091C82.6531 11.1442 82.5811 10.7602 82.4931 10.5122C82.4051 10.2562 82.2571 10.0722 82.0491 9.96024C81.8411 9.84024 81.5251 9.78024 81.1011 9.78024H80.1051C79.8171 9.78024 79.6051 9.80424 79.4691 9.85224C79.3411 9.89224 79.2531 9.98024 79.2051 10.1162C79.1571 10.2522 79.1331 10.4722 79.1331 10.7762V13.6082H79.9251C80.2051 13.6082 80.4211 13.5442 80.5731 13.4162C80.7251 13.2802 80.8251 13.1242 80.8731 12.9482C80.9291 12.7642 80.9731 12.5362 81.0051 12.2642L81.0411 12.0242H81.3171C81.2931 12.3602 81.2811 12.7362 81.2811 13.1522V13.7282C81.2811 14.1362 81.3051 14.7042 81.3531 15.4322H81.0771C81.0691 15.3762 81.0451 15.1842 81.0051 14.8562C80.9651 14.5202 80.8531 14.2682 80.6691 14.1002C80.4931 13.9322 80.2451 13.8482 79.9251 13.8482H79.1331V16.7282C79.1331 17.0322 79.1571 17.2522 79.2051 17.3882C79.2531 17.5242 79.3411 17.6162 79.4691 17.6642C79.6051 17.7042 79.8171 17.7242 80.1051 17.7242H80.9811C81.4771 17.7242 81.8531 17.6602 82.1091 17.5322C82.3731 17.3962 82.5651 17.1842 82.6851 16.8962C82.8051 16.6002 82.8931 16.1682 82.9491 15.6002H83.2251C83.2011 15.8162 83.1891 16.1042 83.1891 16.4642ZM88.6056 9.37224C88.9576 9.37224 89.2336 9.41224 89.4336 9.49224C89.6416 9.56424 89.8536 9.67224 90.0696 9.81624C90.2456 9.92824 90.3816 9.98424 90.4776 9.98424C90.5496 9.98424 90.6056 9.94424 90.6456 9.86424C90.6856 9.77624 90.7176 9.64024 90.7416 9.45624H91.0176C90.9776 9.92024 90.9576 10.7362 90.9576 11.9042H90.6816C90.6336 11.2562 90.4456 10.7122 90.1176 10.2722C89.7976 9.82424 89.3296 9.60024 88.7136 9.60024C88.2816 9.60024 87.9296 9.73224 87.6576 9.99624C87.3856 10.2522 87.2496 10.5842 87.2496 10.9922C87.2496 11.2962 87.3176 11.5602 87.4536 11.7842C87.5976 12.0082 87.7776 12.2002 87.9936 12.3602C88.2096 12.5202 88.5176 12.7242 88.9176 12.9722L89.2656 13.1882C89.7696 13.5002 90.1656 13.7762 90.4536 14.0162C90.7496 14.2482 90.9856 14.5162 91.1616 14.8202C91.3376 15.1242 91.4256 15.4802 91.4256 15.8882C91.4256 16.6162 91.1856 17.1802 90.7056 17.5802C90.2256 17.9722 89.6176 18.1682 88.8816 18.1682C88.4976 18.1682 88.1816 18.1282 87.9336 18.0482C87.6936 17.9682 87.4616 17.8602 87.2376 17.7242C87.0616 17.6122 86.9256 17.5562 86.8296 17.5562C86.7576 17.5562 86.7016 17.6002 86.6616 17.6882C86.6216 17.7682 86.5896 17.9002 86.5656 18.0842H86.2896C86.3216 17.6442 86.3376 16.6842 86.3376 15.2042H86.6136C86.6696 16.0122 86.8696 16.6682 87.2136 17.1722C87.5576 17.6762 88.0856 17.9282 88.7976 17.9282C89.2296 17.9282 89.5976 17.7962 89.9016 17.5322C90.2056 17.2602 90.3576 16.8602 90.3576 16.3322C90.3576 15.8842 90.2056 15.5042 89.9016 15.1922C89.6056 14.8802 89.1336 14.5282 88.4856 14.1362C88.0136 13.8482 87.6296 13.5922 87.3336 13.3682C87.0456 13.1442 86.8096 12.8762 86.6256 12.5642C86.4416 12.2442 86.3496 11.8722 86.3496 11.4482C86.3496 10.7762 86.5656 10.2642 86.9976 9.91224C87.4296 9.55224 87.9656 9.37224 88.6056 9.37224ZM100.798 9.50424C100.742 10.0722 100.714 10.5842 100.714 11.0402C100.714 11.4402 100.726 11.7682 100.75 12.0242H100.474C100.41 11.4082 100.33 10.9522 100.234 10.6562C100.138 10.3522 99.9701 10.1322 99.7301 9.99624C99.4901 9.85224 99.1221 9.78024 98.6261 9.78024H97.9781V16.6082C97.9781 16.9442 98.0101 17.1882 98.0741 17.3402C98.1381 17.4922 98.2501 17.5962 98.4101 17.6522C98.5701 17.7082 98.8301 17.7442 99.1901 17.7602V18.0002C98.7741 17.9762 98.1861 17.9642 97.4261 17.9642C96.6261 17.9642 96.0341 17.9762 95.6501 18.0002V17.7602C96.0101 17.7442 96.2701 17.7082 96.4301 17.6522C96.5901 17.5962 96.7021 17.4922 96.7661 17.3402C96.8301 17.1882 96.8621 16.9442 96.8621 16.6082V9.78024H96.2141C95.7181 9.78024 95.3501 9.85224 95.1101 9.99624C94.8701 10.1322 94.7021 10.3522 94.6061 10.6562C94.5101 10.9522 94.4301 11.4082 94.3661 12.0242H94.0901C94.1141 11.7682 94.1261 11.4402 94.1261 11.0402C94.1261 10.5842 94.0981 10.0722 94.0421 9.50424C94.7061 9.52824 95.8341 9.54024 97.4261 9.54024C99.0101 9.54024 100.134 9.52824 100.798 9.50424Z" fill="#555248"/>
<path d="M21.0099 8.69434C21.8207 10.2065 22.1602 11.8438 22.0802 13.4398C21.9256 16.5217 20.2074 19.4468 17.2917 21.0103C15.5877 21.924 13.7244 22.2394 11.9404 22.0299C9.08509 21.6947 6.43639 20.0161 4.97576 17.292C2.60158 12.8643 4.2663 7.35026 8.694 4.97607C9.74841 4.41069 10.8633 4.07467 11.9822 3.95C13.622 3.76729 15.2725 4.03833 16.754 4.70967C18.5103 5.50552 20.0281 6.86323 21.0099 8.69434Z" stroke="url(#paint0_linear_0:495)"/>
<defs>
<linearGradient id="paint0_linear_0:495" x1="3.75599" y1="11.7235" x2="23.9646" y2="12.9922" gradientUnits="userSpaceOnUse">
<stop offset="0.288448" stop-color="#555248"/>
<stop offset="0.780176" stop-color="#1B1A17" stop-opacity="0"/>
</linearGradient>
</defs>
</svg>

<svg width="104" height="26" fill="none" xmlns="http://www.w3.org/2000/svg"><path d="M30.136 9.336c.48 0 .888.068 1.224.204.336.136.664.328.984.576.088.072.164.108.228.108.16 0 .264-.24.312-.72h.276c-.032.52-.048 1.44-.048 2.76h-.276c-.088-.52-.168-.892-.24-1.116a1.984 1.984 0 0 0-.36-.66 2.167 2.167 0 0 0-.924-.696 2.977 2.977 0 0 0-1.2-.24c-.52 0-.976.172-1.368.516-.384.344-.684.836-.9 1.476-.216.632-.324 1.376-.324 2.232 0 .872.116 1.62.348 2.244.232.624.552 1.1.96 1.428.416.32.884.48 1.404.48.4 0 .788-.076 1.164-.228a1.96 1.96 0 0 0 .888-.684c.16-.224.276-.464.348-.72.072-.256.14-.648.204-1.176h.276c0 1.376.016 2.336.048 2.88h-.276c-.024-.256-.06-.436-.108-.54-.04-.112-.1-.168-.18-.168a.526.526 0 0 0-.252.096c-.36.256-.704.452-1.032.588-.328.128-.724.192-1.188.192-.76 0-1.428-.172-2.004-.516-.568-.344-1.012-.84-1.332-1.488-.312-.656-.468-1.436-.468-2.34 0-.88.16-1.66.48-2.34.328-.68.78-1.208 1.356-1.584a3.578 3.578 0 0 1 1.98-.564Zm9.942 0c.76 0 1.424.172 1.992.516.576.344 1.02.844 1.332 1.5.32.648.48 1.424.48 2.328 0 .88-.164 1.66-.492 2.34-.32.68-.772 1.208-1.356 1.584-.576.376-1.232.564-1.968.564-.76 0-1.428-.172-2.004-.516-.568-.344-1.012-.84-1.332-1.488-.312-.656-.468-1.436-.468-2.34 0-.88.16-1.66.48-2.34.328-.68.78-1.208 1.356-1.584a3.578 3.578 0 0 1 1.98-.564Zm-.048.216c-.512 0-.964.18-1.356.54-.384.352-.684.848-.9 1.488-.208.64-.312 1.372-.312 2.196 0 .832.116 1.564.348 2.196.24.632.56 1.12.96 1.464.4.344.848.516 1.344.516.512 0 .96-.176 1.344-.528.392-.36.692-.86.9-1.5.216-.64.324-1.372.324-2.196 0-.832-.12-1.564-.36-2.196-.232-.632-.548-1.12-.948-1.464-.4-.344-.848-.516-1.344-.516Zm14.117.192c-.28.016-.488.06-.624.132a.512.512 0 0 0-.276.336c-.048.152-.072.38-.072.684v7.164h-.276l-5.04-7.788v6.336c0 .312.024.544.072.696.056.152.16.264.312.336.152.064.388.104.708.12V18a15.76 15.76 0 0 0-1.224-.036c-.48 0-.852.012-1.116.036v-.24c.28-.016.488-.056.624-.12a.553.553 0 0 0 .276-.336c.048-.16.072-.392.072-.696v-5.832c0-.304-.024-.524-.072-.66a.431.431 0 0 0-.276-.276c-.128-.048-.336-.08-.624-.096v-.24c.264.024.636.036 1.116.036.36 0 .672-.012.936-.036l4.236 6.528v-5.136c0-.312-.028-.544-.084-.696a.503.503 0 0 0-.3-.324c-.152-.072-.388-.116-.708-.132v-.24c.288.024.696.036 1.224.036.48 0 .852-.012 1.116-.036v.24Zm11.186 8.604c-.176.608-.428 1.064-.756 1.368-.392.36-.932.54-1.62.54-.368 0-.728-.056-1.08-.168a13.204 13.204 0 0 1-1.332-.528 20.394 20.394 0 0 0-1.452-.576l-.288-.084c-.344.12-.676.18-.996.18-.368 0-.552-.08-.552-.24 0-.168.216-.252.648-.252.28 0 .58.032.9.096.256-.072.552-.184.888-.336.208-.096.364-.164.468-.204-.68-.064-1.272-.276-1.776-.636-.496-.36-.884-.852-1.164-1.476-.272-.632-.408-1.368-.408-2.208 0-.88.16-1.66.48-2.34.328-.68.78-1.208 1.356-1.584a3.578 3.578 0 0 1 1.98-.564c.76 0 1.424.172 1.992.516.576.344 1.02.844 1.332 1.5.32.648.48 1.424.48 2.328 0 .832-.144 1.576-.432 2.232-.288.648-.692 1.168-1.212 1.56a3.51 3.51 0 0 1-1.788.672v.012c-.192.024-.36.056-.504.096-.136.048-.32.12-.552.216a5.96 5.96 0 0 1-.72.276c.888.176 1.64.316 2.256.42.624.104 1.14.156 1.548.156.568 0 1.016-.084 1.344-.252.336-.16.596-.424.78-.792l.18.072Zm-7.32-4.572c0 .832.116 1.564.348 2.196.24.632.56 1.12.96 1.464.4.344.848.516 1.344.516.512 0 .96-.176 1.344-.528.392-.36.692-.86.9-1.5.216-.64.324-1.372.324-2.196 0-.832-.12-1.564-.36-2.196-.232-.632-.548-1.12-.948-1.464-.4-.344-.848-.516-1.344-.516-.512 0-.964.18-1.356.54-.384.352-.684.848-.9 1.488-.208.64-.312 1.372-.312 2.196Zm16.528-4.032c-.28.016-.488.06-.624.132a.512.512 0 0 0-.276.336c-.048.152-.072.38-.072.684v3.612c0 .576-.04 1.072-.12 1.488-.072.408-.196.76-.372 1.056-.2.344-.496.616-.888.816-.384.2-.82.3-1.308.3-.88 0-1.552-.216-2.016-.648a2.44 2.44 0 0 1-.708-1.116c-.12-.416-.18-1.036-.18-1.86v-3.768c0-.304-.024-.524-.072-.66a.431.431 0 0 0-.276-.276c-.128-.048-.336-.08-.624-.096v-.24c.336.024.848.036 1.536.036.648 0 1.156-.012 1.524-.036v.24c-.288.016-.5.048-.636.096a.432.432 0 0 0-.264.276c-.048.136-.072.356-.072.66v3.972c0 .64.044 1.172.132 1.596.088.424.268.764.54 1.02.28.256.688.384 1.224.384.848 0 1.444-.272 1.788-.816.344-.544.516-1.308.516-2.292v-3.744c0-.432-.08-.728-.24-.888-.152-.16-.436-.248-.852-.264v-.24c.288.024.696.036 1.224.036.48 0 .852-.012 1.116-.036v.24Zm8.648 6.72c0 .456.028.968.084 1.536a71.543 71.543 0 0 0-2.748-.036c-1.536 0-2.696.012-3.48.036v-.24c.288-.016.496-.048.624-.096a.431.431 0 0 0 .276-.276c.048-.136.072-.356.072-.66v-5.952c0-.304-.024-.524-.072-.66a.431.431 0 0 0-.276-.276c-.128-.048-.336-.08-.624-.096v-.24c.784.024 1.944.036 3.48.036 1.176 0 2.012-.012 2.508-.036-.056.528-.084 1-.084 1.416 0 .312.012.56.036.744h-.276c-.056-.52-.128-.904-.216-1.152a.943.943 0 0 0-.444-.552c-.208-.12-.524-.18-.948-.18h-.996c-.288 0-.5.024-.636.072a.397.397 0 0 0-.264.264c-.048.136-.072.356-.072.66v2.832h.792c.28 0 .496-.064.648-.192a.963.963 0 0 0 .3-.468c.056-.184.1-.412.132-.684l.036-.24h.276c-.024.336-.036.712-.036 1.128v.576c0 .408.024.976.072 1.704h-.276a49.511 49.511 0 0 1-.072-.576c-.04-.336-.152-.588-.336-.756-.176-.168-.424-.252-.744-.252h-.792v2.88c0 .304.024.524.072.66a.432.432 0 0 0 .264.276c.136.04.348.06.636.06h.876c.496 0 .872-.064 1.128-.192.264-.136.456-.348.576-.636.12-.296.208-.728.264-1.296h.276a8.194 8.194 0 0 0-.036.864Zm5.417-7.092c.352 0 .628.04.828.12.208.072.42.18.636.324.176.112.312.168.408.168.072 0 .128-.04.168-.12.04-.088.072-.224.096-.408h.276c-.04.464-.06 1.28-.06 2.448h-.276c-.048-.648-.236-1.192-.564-1.632-.32-.448-.788-.672-1.404-.672-.432 0-.784.132-1.056.396-.272.256-.408.588-.408.996 0 .304.068.568.204.792.144.224.324.416.54.576.216.16.524.364.924.612l.348.216c.504.312.9.588 1.188.828.296.232.532.5.708.804.176.304.264.66.264 1.068 0 .728-.24 1.292-.72 1.692-.48.392-1.088.588-1.824.588-.384 0-.7-.04-.948-.12a3.426 3.426 0 0 1-.696-.324c-.176-.112-.312-.168-.408-.168-.072 0-.128.044-.168.132-.04.08-.072.212-.096.396h-.276c.032-.44.048-1.4.048-2.88h.276c.056.808.256 1.464.6 1.968s.872.756 1.584.756c.432 0 .8-.132 1.104-.396.304-.272.456-.672.456-1.2 0-.448-.152-.828-.456-1.14-.296-.312-.768-.664-1.416-1.056a14.268 14.268 0 0 1-1.152-.768 2.834 2.834 0 0 1-.708-.804 2.2 2.2 0 0 1-.276-1.116c0-.672.216-1.184.648-1.536.432-.36.968-.54 1.608-.54Zm12.192.132c-.056.568-.084 1.08-.084 1.536 0 .4.012.728.036.984h-.276c-.064-.616-.144-1.072-.24-1.368-.096-.304-.264-.524-.504-.66-.24-.144-.608-.216-1.104-.216h-.648v6.828c0 .336.032.58.096.732a.542.542 0 0 0 .336.312c.16.056.42.092.78.108V18a32.751 32.751 0 0 0-1.764-.036c-.8 0-1.392.012-1.776.036v-.24c.36-.016.62-.052.78-.108a.542.542 0 0 0 .336-.312c.064-.152.096-.396.096-.732V9.78h-.648c-.496 0-.864.072-1.104.216-.24.136-.408.356-.504.66-.096.296-.176.752-.24 1.368h-.276c.024-.256.036-.584.036-.984 0-.456-.028-.968-.084-1.536.664.024 1.792.036 3.384.036 1.584 0 2.708-.012 3.372-.036Z" fill="#555248"/><path d="M21.682 15.534c-.58 1.842-1.868 4.124-4.39 5.476a9.052 9.052 0 0 1-4.909 1.061l.043-18.128.156-.012c.486-.003 1.084.018 1.698.088.274.031.545.071.806.121a9.153 9.153 0 0 1 1.668.57 9.055 9.055 0 0 1 4.256 3.984 9.052 9.052 0 0 1 1.07 4.743 9.668 9.668 0 0 1-.398 2.097ZM11.425 4.074l-.042 17.873a9.097 9.097 0 0 1-2.69-16.97c.574-.308 1.553-.689 2.732-.902Z" stroke="url(#a)"/><defs><linearGradient id="a" x1="3.756" y1="11.723" x2="23.965" y2="12.992" gradientUnits="userSpaceOnUse"><stop offset=".288" stop-color="#555248"/><stop offset=".78" stop-color="#1B1A17" stop-opacity="0"/></linearGradient></defs></svg>
